X:1
T:Giacomo Fogliano (1473-1548)   
T:Ave Maria
%%score 1 2 3 4
L:1/8
M:2/2
K:A
V:1 treble nm="P1"
V:2 treble nm="P2"
V:3 treble-8 nm="P3"
V:4 bass nm="P4"
V:1
 z8 | A4 E2 E2 | FGAB c4 | d4 c2 c2 | B4 A4 | z4 d3 c | B2 B2 A2 A2 | =G2 G2 A4 | A4 z4 | z8 | %10
w: |A- ve Ma-|ri- * * * a,|gra- ti- a|ple- na.|Do- mi-|nus te- cum, be-|ne- di- cta|tu||
 z4 z2 c2 | c2 c2 c3 B | A2 G2 F2 E2 | F4 E4- | E4 z4 | G4 G2 G2 | A2 A2 B4 | G4 A4- | %18
w: in|mu- li- e- ri-|bus, et be- ne-|di- ctus|_|fruc- tus ven-|tris tu- i,|Je- *|
 A2 G2 A2 F2 | G8 || A4 A2 A2 | A2 A2 A2 A2 | B4 G4 | G4 F2 G2 | A4 A4 | z8 | z8 | z2 c2 B2 c2- | %28
w: |sus.|San- cta Ma-|ri- a, Ma- ter|De- i,|o- ra pro|no- bis,|||pec- ca- to-|
 c2 BA B2 B2 | c4 z4 | z4 A4 | B2 B2 c2 c2 | d4 B4 | A4 z4 | z8 | z2 A4 G2 | A2 c2 B2 d2 | %37
w: * * * * ri-|bus,|nunc|et in ho- ra|mor- *|tis,||nunc _|et in ho- ra|
 c2 e3 dcB | c2 d3 cBA | B2 A4 G2 | A8 | G8 | A8 |] %43
w: mor- * * * *|* tis, _ _ _|_ A- *|men,|A-|men.|
V:2
 A4 G2 G2 | F4 E4 | D2 D2 E4 | F4 E4 | D4 A,2 A,2 | B,CDE F4 | =G4 F4 | E2 E2 D4 | z8 | z8 | %10
w: A- ve Ma-|ri- a,|a- ve Ma-|ri- a,|a- ve Ma-|ri- * * * a,|gra- ti-|a ple- na,|||
 z4 z2 A2 | A2 A2 A3 G | F2 E2 D2 E2- | E2 ^D2 E4- | E4 z4 | B,4 B,2 B,2 | F4 D2 E2 | %17
w: in|mu- li- e- ri-|bus, et be- ne-|* dic- tus|_|fruc- tus ven-|tris tu- i|
 EDCB, A,2 D2- | DC B,4 A,2 | B,8 || E4 E2 E2 | E2 E2 F2 F2 | D4 E4 | E4 A,2 E2 | C4 F4 | E8 | z8 | %27
w: Je- * * * * *||sus.|San- cta Ma-|ri- a, Ma- ter|De- i,|o- ra pro|no- *|bis,||
 z2 A2 G2 A2- | AG F2 G2 G2 | A4 z4 | E4 F2 F2 | G2 G2 A4 | F4 E4 | z8 | z2 A4 G2 | A2 c2 B4 | %36
w: pec- ca- to-|* * * * ri-|bus,|nunc et in|ho- ra mor-|* tis,||nunc _|et in ho-|
 A4 z4 | A4 E2 A2- | AGFE F2 =G2- | GFED E4 | C4 D4 | E8 | E8 |] %43
w: ra,|ho- ra mor-|* * * * * tis,|_ _ _ _ _|A- men,|A-|men.|
V:3
 E4 E2 E2 | C8 | B,4 A,4 | D4 A,2 A,2 | B,CDE F4 | =G4 F2 F2 | E4 F4 | z4 z2 F2 | F2 F2 F3 E | %9
w: A- ve Ma-|ri-|* a,|a- ve Ma-|ri- * * * a,|gra- ti- a|ple- na,|in|mu- li- e- ri-|
 D2 C2 B,2 A,2 | B,4 A,4- | A,4 z4 | z8 | z4 C4 | C2 C2 D2 D2 | E8 | C4 B,4 | E3 D C2 F2- | %18
w: bus, et be- ne-|di- ctus|_||fru-|ctus ven- tris tu-|i,|Je- *||
 FE E4 ^D2 | E8 || C4 C2 C2 | C2 C2 D2 D2 | B,4 B,4 | B,3 C D2 B,2 | A,4 D4 | C4 B,2 C2- | %26
w: |sus.|San- cta Ma-|ri- a, Ma- ter|De- i,|o- * ra pro|no- bis,|pec- ca- to-|
 C2 B,A, B,2 B,2 | A,4 z4 | z8 | A,4 B,2 B,2 | C2 C2 D4 | B,4 A,4 | z2 A,4 G,2 | A,2 C2 B,4 | %34
w: * * * * ri-|bus,||nunc et in|ho- ra mor-|* tis,|nunc _|et in ho-|
 A,4 z4 | z8 | z2 E4 D2 | E2 C3 D E2- | E2 D2 B,2 D2- | D2 C4 B,2 | A,8 | B,8 | A,8 |] %43
w: ra,||nunc _|_ et in ho-|* ra mor- tis,|_ A- *|men,|A-|men.|
V:4
 A,4 E,2 E,2 | F,G,A,B, C4 | D4 C2 C2 | B,4 C4 | z4 F,4 | E,4 D,2 D,2 | E,4 z2 D,2 | %7
w: A- ve Ma-|ri- * * * a,|gra- ti- a|ple- na,|Do-|mi- nus te-|cum, be-|
 E,2 E,2 F,2 D,2 | D2 DD D3 C | B,2 A,2 G,2 A,2- | A,2 G,2 A,4- | A,4 z4 | z8 | z4 A,4 | %14
w: ne- di- cta tu|in mu- li- e- ri-|bus, et be- ne-|* di- ctus|_||fru-|
 A,2 A,2 F,2 F,2 | E,8 | F,4 =G,4 | E,4 F,4 | D,2 E,2 F,4 | E,8 || A,4 A,2 A,2 | A,2 A,2 D,2 D,2 | %22
w: ctus ven- tris tu-|i,|Je- *|||sus.|San- cta Ma-|ri- a, Ma- ter|
 =G,3 F, E,4 | E,4 D,2 E,2 | F,4 D,4 | z2 A,2 G,2 A,2- | A,2 G,F, G,2 G,2 | A,4 z4 | z4 E,4 | %29
w: De- * i,|o- ra pro|no- bis,|pec- ca- to-||bus,|nunc|
 F,2 F,2 G,2 G,2 | A,4 F,4 | E,4 z4 | D,4 E,4 | F,2 A,4 G,2 | A,2 C2 B,4 | A,4 z2 E,2 | %36
w: et in ho- ra|mor- *|tis,|mor- *|tis, nunc _|et in ho-|ra, nunc|
 F,2 A,2 G,2 B,2 | A,4 z2 A,2- | A,2 B,4 =G,2- | G,2 A,2 E,4 | F,8 | E,8 | A,8 |] %43
w: et in ho- *|ra, ho-|* ra mor-|* tis, A-|men,|A-|men.|

